svgs/regular/pager.svg

<svg xmlns="http://www.w3.org/2000/svg" viewBox="0 0 512 512"><!--! Font Awesome Pro 6.0.0-alpha3 by @fontawesome - https://fontawesome.com License - https://fontawesome.com/license (Commercial License) --><path d="M296 304H224V352h72C309.3 352 320 341.3 320 328S309.3 304 296 304zM96 327.1C96 341.3 106.7 352 119.1 352H192V304H119.1C106.7 304 96 314.7 96 327.1zM392 160h-272C106.8 160 96 170.8 96 184v48C96 245.2 106.8 256 120 256h272C405.2 256 416 245.2 416 232v-48C416 170.8 405.2 160 392 160zM448 64H64C28.62 64 0 92.62 0 128v256c0 35.38 28.62 64 64 64h384c35.38 0 64-28.62 64-64V128C512 92.62 483.4 64 448 64zM464 384c0 8.875-7.125 16-16 16H64c-8.875 0-16-7.125-16-16V128c0-8.875 7.125-16 16-16h384c8.875 0 16 7.125 16 16V384z"/></svg>

<svg xmlns="http://www.w3.org/2000/svg" viewBox="0 0 512 512"><path d="M304 304h-80v48h80a16 16 0 0 0 16-16v-16a16 16 0 0 0-16-16zM96 320v16a16 16 0 0 0 16 16h80v-48h-80a16 16 0 0 0-16 16zm296-160H120a24 24 0 0 0-24 24v48a24 24 0 0 0 24 24h272a24 24 0 0 0 24-24v-48a24 24 0 0 0-24-24zm56-96H64a64 64 0 0 0-64 64v256a64 64 0 0 0 64 64h384a64 64 0 0 0 64-64V128a64 64 0 0 0-64-64zm16 320a16 16 0 0 1-16 16H64a16 16 0 0 1-16-16V128a16 16 0 0 1 16-16h384a16 16 0 0 1 16 16z"/></svg>
